X:1
T:Pigeon on the Gate, The
R:reel
Z:id:hn-reel-140
M:4/4
L:1/8
K:Edor
dc|BE~E2 BEdE|BE~E2 BAFE|D2 (3FED ADFD|FA~A2 BAFA|
   BE~E2 BEdE|BE~E2 BAFE|D2FA dfec|dBAF E2:|
FA|Beed efed|(3Bcd ef gfed|Bddc dedB|AF~F2 DEFA|
   Beed efed|(3Bcd ef g2fg|(3agf ge fdec|dBAF E2:|
